X:1
T:Te  Deum
T:                                                                                                                                                                                                     Fr. Witt, op. 10a  
T:Te  Deum
C:Fr. Witt, op. 10a
%%score [ ( 1 2 3 ) ( 4 5 ) ( 6 7 ) ] { ( 8 10 12 13 ) | ( 9 11 14 15 ) }
L:1/8
Q:1/4=120
M:4/4
K:Eb
V:1 treble nm="Cantus Altus"
V:2 treble 
V:3 treble 
V:4 treble nm="Tenor Bassus"
V:5 treble 
V:6 bass nm="P3"
V:7 bass 
V:8 treble nm="Organum"
V:10 treble 
V:12 treble 
V:13 treble 
V:9 bass 
V:11 bass 
V:14 bass 
V:15 bass 
V:1
!f! z8 |"^-" z8 | z8 |!f! e3 e e2 e2 | e6"^-" B2 |"^S.A." (cd"^-""^-" e4)"^-" e2 | %6
w: ||||||
w: ||||||
w: |||Te ae- ter- num|Pa- trem|om- * * nis|
"^-" .c2 .c2 cd !>!e2- | e2 d2!ff! B4 | G4 E2 E2 | F3 F G4 | !^!E2 E2 !^!E4 |"^S.A.""^-" E4 z2 E2 | %12
w: ||||||
w: ||||||
w: ter- ra ve- ne- ra-|* tur. Ti-|bi * *||||
 F3 F F2 F2 | E2 F2 F2 F2 | d2 d2 f3 e | d2 d2 f4- | f2 c2 d2 e2- |"^S.A." ee !^!e>e d2 !^!d2- | %18
w: ||||||
w: ||||||
w: |po- te- sta- tes;|Ti- bi Che- ru-|bim et *|||
 d2 dd d4 | B4 z4 |!f!"^accelerando sempre"!<(! d8!<)! |!ff![Q:1/4=108][Q:1/4=108]!>(! d8!>)! | %22
w: ||||
w: ||||
w: ||||
!f! B4 z4 |"^accel.""^S.A."!f!!<(! e8!<)! |!ff!!>(! e8!>)! |!f! c4 z4 |!f!!<(! [Ff]8-!<)! | %27
w: |||||
w: |||||
w: |||||
!ff!!>(! [Ff]8!>)! |!f! d2!ff! !^!B3 B B2 | d4 B4 |"^rit." =E6"^dim." E2 | %31
w: ||||
w: ||||
w: ||||
 !fermata!F6 !fermata!z2 |"^S.A."!ff! !^!_d4"^Pesante e largo" c2"^Wuchtig und breit q=96" B2 | %33
w: |Ple- ni sunt|
w: ||
w: ||
 _A4 F2 _d2 | (e2 _d2) c4 | _d3 d d2 d2 | f3 f _d4 |"^-""^-" (c4"^-" f2"^-""^-" e2) | %38
w: coe- li et|ter- * ra|Ma- je- sta- tis|glo- ri- ae||
w: |||||
w: ||||tu- * *|
 !fermata!=d4 z2 z2 |"^S.A." z2 B2 B2 B2 | !^!d2 B4 G2 | G2 G2 B2 G2 | F4 F2 d2 | %43
w: ae.|Te glo- ri-|o- sus A-|po- sto- lo- rum|cho- rus, Te|
w: |||||
w: ae.|||||
 d2"^Meno mosso" d2 !^!f2 d2- | d2!<(! d2 B2 B!<)!c |"^S.A." d2!>(! B2"^-" c4!>)! |!f! z8 | z8 | %48
w: Pro- phe- ta- rum|_ lau- da- bi- lis||||
w: |||||
w: ||nu- me- rus,|||
 z8 | z8 |"^S.A." z8 |"^dim." z8 | z8 |!ff![Q:1/4=104][Q:1/4=104] =e6 e2 | =e4 e2 e2 | (d4 g4) | %56
w: ||||||||
w: ||||||||
w: ||||||||
 =e4 f3 f |"^S.A." c2 c2"^-" f4 | _e2"^-" e2 (e3"^-" =d |"^-" c2) c2"^-" c4 |!ff! z8 | z8 | z8 | %63
w: |||||||
w: |||||||
w: |con- fi- te-|tur Ec- cle- *|* si- a,||||
"^S.A.""^-" e3 e d2 c2 | B2 G2 e4 | d2 c2 B3 B | B2 !^!c4 A2 |!f! B4 z4 | z8 | z8 | %70
w: |||||||
w: |||||||
w: Ve- ne- ran- dum|tu- um ve-|rum et u- ni-|cum Fi- li-|um,|||
"^S.A." z4 z2 !^!d2- | d2 e2 d3 c | B4"^-" f4- |"^-""^-" f4 d2!ff! F2 | B4 G2 GG | c4 =A2 c2 | %76
w: ||||||
w: ||||||
w: Tu|_ Rex glo- ri-|ae, Chri-|* ste. *|||
 d3 d B2 ||"^S1.S2.""^dolce""^HALBCHOR"!p!"^Meno mosso q=94" BB |!<(! e3 e e2!<)! d2 | %79
w: |Tu ad|li- be- ran- dum|
w: |||
w: |||
 c2 c2!>(! d2 c2 | =B3!>)!!p! B B4 | z2!<(! d2 d2 d2!<)! |!>(! !^!d4!>)! c4 | %83
w: su- sce- ptu- rus|ho- mi- nem|non hor- ru-|i- sti,|
w: ||||
w: ||||
"^S1.S2." z2!<(! c2 e2!<)! e2 | !^!e4!f!!>(! c4!>)! |"^rit.""^rit.""^rit."!f! f3 e (dedc | %86
w: non hor- ru-|i- sti|* gi- nis _ _ _|
w: |||
w: ||Vir- gi- nis _ _ _|
 B2)"^dim.""^-" !^!B4!p! B2 |"^CHOR" B4 z4 | z8 |"^S.A.""^-" z8 | z4!f! =A4 | B3"^-" B B2 B2- | %92
w: u- * te-|rum.|||sti|den- * * ti-|
w: ||||||
w: _ u- te-|rum.|||cre-|den- ti- bus re-|
 B=A"^-"GA B2!>(! G2!>)! | F4"^-" F4 |"^S.A.""^-" B3 B B2 BB | d4 d4 |"^-"!<(! z4!>)!!>(! g4!<)! | %97
w: bus * * * re- gna|lo- *|rum. Tu de- xte- ram|De- i||
w: |||||
w: * * * * gna coe-|lo- rum.|Tu ad de- xte- ram|De- i|se-|
 ^f4 d4 | d3 d e4- |"^-""^-" e4"^-""^-" (e4- |"^-" e2"^-" d"^-"c) B4 |"^S.A.""^-"!ff! E4 G4 | %102
w: des *|glo- ri- a||* * * tris,|Ju- dex|
w: ||||tris. *|
w: des in|glo- ri- a|_ Pa-|* * * tris,||
"^rit.""^rit." B3 B B4 | z2 !^!G2 G2 G2 |"^rit.""^rit." c4 c2 c2 |"^-" d8 | !fermata!G8 || %107
w: cre- de- ris|es- se ven-|tu- rus, ven-|tu-|rus.|
w: |||||
w: |||||
"^S1.S2.""^dolcissimo""^HALBCHOR"!p! G4 G2"^Adagio molto q=45"!<(! G2 | c3 c!<)!!mf!!mf! c4 | %109
w: Te er- go|quae- su- mus|
w: ||
w: ||
 d3 d d4 |!>(! =e4!>)! e4 |"^-""^-"!<(! f8!<)! |"^-""^-"!>(! _e4!>)! e4 |"^S1.S2.""^-" e4!mf! z4 | %114
w: * mu- lis|tu- is||sub- ve-|ni,|
w: |||||
w: fa- mu- lis|tu- is|sub-|* ve-||
 z4 z2!mf! _d2 | e2 _d2"^-" c2 B2 |"^dim." c3 c!<(! c4 | %117
w: so|san- * * gui-|ne * re-|
w: |||
w: quos|pre- ti- o- so|san- gui- ne|
"^rit.""^rit.""^rit." _d2 d2!<)!!>(! f3 e!>)! |"^-""^-" _d4!pp! c4- | c6 !fermata!z2 || %120
w: de- * mi- *|* sti.|_|
w: |||
w: re- de- mi- *|* sti.|_|
"^S.A.""^CHOR""^Con moto q=96"!mf!"^cresc." z8 | z8 | z8 |"^-"!f! z8 |!f! G4 GA"^-""^-"GF | %125
w: |||||
w: |||||
w: ||||in glo- * * *|
"^-""^-" E4 F2 G2 | G3 F G4 |"^S.A.""^-" E2!ff! z2 z4 | z4!ff! z2 G2- | G2 G2 c3 c | %130
w: |||||
w: |||||
w: * ri- a|nu- me- ra-||tu-|* um, Do- mi-|
 =B4!mf! z2 d2 | d3!<(! d d2 d2 | =e2!<)! e2 f2 c2 |"^dim." c4 c4 |"^S.A."!ff! z2!ff! F2 A2 A2 | %135
w: ||||* re- ge|
w: |||||
w: ne, *||||Et re- ge|
 c4 c2 cc | c2 d2 e4 | e4 z4 | z8 |!f!"^sempre" g4 e2 ee |"^S.A." c2 c2 f3 e | dedc"^-" B2 e2 | %142
w: e- os, et ex-|tol- le il-|los,||num, per * *|sin- gu- los es,|per * * * sin- gu-|
w: |||||||
w: ||||per sin- gu- los|di- es be- ne-|di- * * * * ci-|
 d4 c2 c2 | B2 AA"^-""^marcatissimo""^stringendo" B4 | z8 |!ff! z8 | z8 |"^S.A." z8 | %148
w: di- es, be-|di- * * *|||||
w: ||||||
w: mus, be- ne-|di- ci- mus te.|||||
"^-""^-"!ff! z8 | E4 E3 E | E4 E2 E2 | F3 F F4 |"^-" F6"^-""^-" E2 | D4 || %154
w: |um in cu-|lum, et in|sae- cu- lum|* cu-|li.|
w: ||||||
w: |In sae- cu-|lum, et in|sae- cu- lum|sae- cu-|li.|
"^S1.S2.""^dolce""^Ruhiger q=94""^HALBCHOR"!p!!<(! G4 |"^Meno mosso" G4 G4!<)! | c3 c c4 | %157
w: Di-|gna- re,|Do- mi- ne,|
w: |||
w: |||
!<(! d2 d2!<)! =e4 |!>(! =e4 f4!>)! |!<(! _e2 e2!<)! !^!e4 | c2 B2 c2!>(! A2!>)! |"^-""^-" B8 | %162
w: * e i-|sto si-|ca- * to|nos * cu- sto-|di-|
w: |||||
w: di- e i-|sto si-|ne pec- ca-|to nos cu- sto-|di-|
 G4!p! G4- |"^S1.S2.""^-"!<(! G2 G2!<)! !^!G2 G2 |!>(! B4!>)! G4 | !^!c3"^-"!>(! B A2!>)! A2 | %166
w: re: Mi-|* se- re- re|no- stri,|Do- * * mi-|
w: ||||
w: re: *||||
 G4!<(! E3 E | E2!<)! E2 B4- |"^-" B2"^-" A2"^-""^-" G4- |"^-""^-" G4 G2 G2 | %170
w: ne, mi- se-|re- re no-||* stri. Fi-|
w: ||||
w: ||||
"^S1.S2.""^-" G2 G2 G2 G2 | c3 c c4 |"^-" d4"^-" d4 | =e3 e e4 |"^-""^-" f6"^-" f2 | %175
w: at mi- se- ri-|cor- di- a||Do- mi- ne,|su- *|
w: |||||
w: ||tu- a,|Do- mi- ne,|su- per|
"^-""^dim.""^dim." e6 d2 |"^S1.S2." e3 e d2 c2 |"^-" B6 c2 | d4 e4 | d8 | %180
w: * per||quem- ad-|dum spe-|mus|
w: |||||
w: nos quem-|ad- mo- dum spe-|ra- vi-|mus in|te.|
"^accel.""^S.A.""^CHOR" z2!f! G4 =A2 | %181
w: In te,|
w: |
w: |
 B3 B"^accelerando molto poco a poco con tutta la forza sempre" B4 | z2 B4 c2 | d3 d d2 d2 | g8 | %185
w: Do- mi- ne,|in te,|Do- mi- ne, spe-|ra-|
w: ||||
w: ||||
"^S.A.""^-" f4[Q:1/4=120][Q:1/4=120] d4 |"^marcatissimo" B4 G4 | E4 e4 |"^accelerando" c4 =A4 | %189
w: ||||
w: ||||
w: ||||
"^S.A.""^-" F4 f4 | d4 B4 | G4 g4 | e4 c4 | =A4 c2 c2 ||[Q:1/2=84][Q:1/2=84] !>!d4 !>!d4 | z8 | %196
w: |||||||
w: |||||||
w: |||||||
"^S.A." z4 e2 e2 | !^!g4"^In starken Schlägen (Con colpo assai forte)" !^!g4 | z4 d2 d2 | e4 e4 | %200
w: in ae-|ter- num,|in ae-|ter- num,|
w: ||||
w: ||||
"^rit." z4 e2 e2 |"^-" d8- |"^-" d8 |"^rit.""^rit.""^-" !fermata!g8 | =e8- | !fermata!e8 |] %206
w: in ae-|ter-|||num.|_|
w: ||||||
w: ||||||
V:2
 E4 (GFED | ED) (C=B,) C2 !>!G2- | G2 G2 F4 | G2 GG G2 G2 | (G2 !^!A4) G2 | (AGEF GFED | %6
w: ||||||
w: Te Do- * * *|* * mi- * num con-|* fi- te-|mur, Te ae- ter- num|Pa- * trem|o- * * * * * * *|
w: ||||||
 E2) A2 G2 E2 | FF !^!F2 G2 !^!B2 | G4 E2 E2 | F3 F G4 | !^!G2 G2 !^!G4 | G4 x2 G2 | B3 B B2 B2 | %13
w: |||||||
w: * mnis ter- ra|ve- ne- ra- tur. Ti-|bi om- nes|An- ge- li,|Ti- bi coe-|li et|u- ni- ver- sae|
w: |||||||
 G2 B2 (B2 =A2) | B8 | B4 B4- | B2 =A2 B2 G2- | GG !^!G>G F2 !^!^F2- | F2 GG (G2 ^F2) | G4 x4 | %20
w: |||||||
w: po- te- sta- *|tes;|et *|||||
w: |||||||
 d8- | d8 | B,4 x4 | e8- | e8 | C4 x4 | x8 | x8 | B2 !^!B3 B B2 | d4 B4 | B6 B2 | =A6 x2 | %32
w: ||||||||||||
w: ||||||||||||
w: ||||||||||||
 z2 !^!_d2 c2 B2 | A4 F2 A2 | (c2 B2) A4 | F3 F F2 F2 | =A3 A B2 (B2- | B2 =AG A4) | B4 x4 | %39
w: |||||||
w: |||||||
w: |||||||
 x2 F2 F2 F2 | !^!B2 D2 G4 | D2 D2 G2 B,2 | (B,2 =A,2) B,2 B2 | B2 B2 !^!d2 B2- | B2 F2 G2 FE | %45
w: ||||||
w: ||||||
w: ||||||
 (F2 B4) =A2 | B2 F2 G3 G | G4 G2 F2 | G2 G2 !^!B3 G | E2 A>G F4 | z2 !^!B3 G E2 | A3 A G4- | %52
w: |||||||
w: nu- * me-|rus, Te Mar- ty-|rum can- di-|da- tus lau- dat|ex- er- ci- tus,|lau- dat ex-|er- ci- tus.|
w: |||||||
 G4 z4 | c6 c2 | c4 c2 c2 | (c4 =B4) | c4 _A3 A | A2 A2 A4- | A4 A2 B2 | A6 A2 | G4 E4 | %61
w: |||||||||
w: _|||||con- fi- te-|* tur Ec-|cle- si-|a: Pa-|
w: |||||||||
 G2 G2 B3 B | c2 c2 !^!A4 | G8 | z2 G4 GG | G2 A2 G4 | E6 E2 | D2 !^!D4 D2 | E4 D2 D2 | %69
w: ||||||||
w: trem im- men- sae|Ma- je- sta-|tis,|ve- rum et|u- ni- cum|Fi- li-|um, San- ctum|quo- que Pa-|
w: ||||||||
 (E3 F) G2 =A2 | B3 B B4 | B2 =A2 B3 B | F2 (!^!B4 =AG | =A4) B2 F2 | B4 G2 GG | c4 =A2 c2 | %76
w: |||||||
w: ra- * cly- tum|Spi- ri- tum.|Tu Rex glo- ri-|ae, Chri- * *|* ste. Tu|Pa- tris sem- pi-|ter- nus es|
w: |||||||
 d3 d B2 || BB | B3 B B2 B2 | G2 G2 G2 G2 | G3 G G4 | G4 _B2 B2 | !^!B4 =A4 | !^!c4 c2 c2 | %84
w: ||||||||
w: Fi- li- us.||||||||
w: ||||||||
 !^!B4 _A2 c2- | c2 c2 (BcBA) | (G3 F/E/ F2) F2 | G4 x4 | x8 | B>B B2 z FFF | G4 ^F2 F2 | %91
w: |||||||
w: |||||||
w: |||||||
 G4 =F2 =E2 | F4 F2 _EE | D2 CB, C4 | B,2 FF F2 FF | B4 =A4 | G8 | =A4 z2 A2 | B3 B G2 G2- | %99
w: ||||||||
w: ||||||||
w: ||||||||
 G2 _A2 G4 | F3 E D4 | E4 G4 | B3 B B4 | z8 | z8 | z8 | z8 || G4 G2 G2 | G3 G G2 c2- | c2 =B2 B4 | %110
w: |||||||||||
w: |||||||||||
w: |||||||||||
 c4 c2 c2- | c2 c2 _d4 | c4 B4 | c6 E2 | A2 B2 c2 B2 | A2 FG A2 E2 | E4 c4 | B4 A4- | A4 A2 GF | %119
w: |||||||||
w: |||||||||
w: |||||||||
 E6 x2 || x8 | B4 G2 G2 | E2 C2 E3 F | G2 G2 D4 | C2 G2 (EFED | C4) D2 E2 | D2 C2 D4 | %127
w: ||Ae- ter- na|fac cum san- *|* ctis tu-|is in glo- * * *|* ri- a|nu- me- ra-|
w: ||||||||
w: ||||||||
 C2 !^!C2 E2 E2 | G3 G G4 | G2 G2 c3 c | G4 x2 G2 | G3 G G2 G2 | G2 G2 _A2 A2 | A2 GF G4 | %134
w: ri. Sal- vum fac|po- pu- lum|tu- um, Do- mi-|ne, et|be- ne- dic hae-|re- di- ta- ti|tu- * * ae.|
w: |||||||
w: |||||||
 F4 A2 A2 | c4 c2 z2 | z8 | z2 B4 A2 | G2 F2 !^!G4 | E4 c4 | A2 AA F2 F2 | B4 G2 GG | F2 GF E2 AG | %143
w: |||||||||
w: |||||||||
w: |||||||||
 F2 E4 DD | E4 z4 | z2 B4 B2 | B2 AG A4 | z2 c4 c2 | cBAG AGEF | G2 G2 G3 G | G4 G2 G2 | %151
w: ||||||||
w: ||||||||
w: ||||||||
 B3 B B2 !^!B2- | B2 AG A2 A2 | G4 || G4 | G4 G4 | G3 G G2 c2- | c2 =B2 c4 | c2 c4 cc | !^!c4 B4 | %160
w: |||||||||
w: |||||||||
w: |||||||||
 A2 G2 A2 E2 | F8 | E4 E4- | E2 E2 !^!E2 E2 | B4 G4 | (!^!c3 B A2) A2 | G4 E3 E | E2 E2 (B4- | %168
w: ||||||||
w: ||||||||
w: ||||||||
 B2 A2 G4- | G4) G2 G2 | G2 G2 G2 G2 | G3 G G2 c2 | c2 =B=A B2 B2 | c3 c c4 | c8- | c2 _B2 B3 A | %176
w: ||||||||
w: ||||||||
w: ||||||||
 G8 | G4 B2 G=A | B2 d2 c2 B2 | =A2 G2 A4 | G4 G2 =A2 | B3 B B4 | x2 B4 c2 | d3 d d2 d2 | B8 | %185
w: |||||||||
w: |||||||||
w: |||||||||
 B4 B4 | z2 G4 E2- | E2 c4 c2 | C2 E2 F2 F2 | z2 D4 F2 | B2 B2 z4 | z2 E4 G2 | c2 c2 C2 E2 | %193
w: vi, non,|non con-|* fun- dar,|non con- fun- dar,|non con-|fun- dar,|non con-|fun- dar, non con-|
w: ||||||||
w: |* fun-|dar, * non|con- * fun- *|* non|con- *|* non|con- * fun- *|
 F2 F2 =A2 A2 || !>!B4 !>!B4 | x8 | x4 c2 c2 | !^!=B4 !^!B4 | x4 =B2 B2 | c4 c4 | x4 c2 c2 | (c8 | %202
w: fun- dar in ae-|ter- num,||||||||
w: |||||||||
w: dar, * * *|||||||||
 =B4 =A4 | =B8) | G8- | G8 |] %206
w: ||||
w: ||||
w: ||||
V:3
 x8 | x8 | x8 | x8 | x8 | x8 | x8 | x8 | x8 | x8 | x8 | x8 | x8 | x8 | x8 | x8 | x8 | x8 | x8 | %19
 x8 | D8- | D8 | x8 | E8- | E8 | x8 | x8 | x8 | x8 | x8 | x8 | x8 | x8 | x8 | x8 | x8 | x8 | x8 | %38
 x8 | x8 | x8 | x8 | x8 | x8 | x8 | x8 | x8 | x8 | x8 | x8 | x8 | x8 | x8 | x8 | x8 | x8 | x8 | %57
 x8 | x8 | x8 | x8 | x8 | x8 | x8 | x8 | x8 | x8 | x8 | x8 | x8 | x8 | x8 | x8 | x8 | x8 | x8 | %76
 x6 || x2 | x8 | x8 | x8 | x8 | x8 | x8 | x8 | x8 | x8 | x8 | x8 | x8 | x8 | x8 | x8 | x8 | x8 | %95
 x8 | x8 | x8 | x8 | x8 | x8 | x8 | x8 | x8 | x8 | x8 | x8 || x8 | x8 | x8 | x8 | x8 | x8 | x8 | %114
 x8 | x8 | x8 | x8 | x8 | x8 || x8 | x8 | x8 | x8 | x8 | x8 | x8 | x8 | x8 | x8 | x8 | x8 | x8 | %133
 x8 | x8 | x8 | x8 | x8 | x8 | x8 | x8 | x8 | x8 | x8 | x8 | x8 | x8 | x8 | x8 | x8 | x8 | x8 | %152
 x8 | x4 || x4 | x8 | x8 | x8 | x8 | x8 | x8 | x8 | x8 | x8 | x8 | x8 | x8 | x8 | x8 | x8 | x8 | %171
 x8 | x8 | x8 | x8 | x8 | x8 | x8 | x8 | x8 | x8 | x8 | x8 | x8 | x8 | x8 | x8 | x8 | x8 | x8 | %190
 x8 | x8 | x8 | x8 || x8 | x8 | x8 | x8 | x8 | x8 | x8 | x8 | x8 | x8 | x8 | x8 |] %206
V:4
 z8 | z8 | z8 | z8 | z8 | z8 | z8 | z8 | z8 | z8 | z8 | z8 | z8 | z8 | z8 | z8 | z8 | z8 | z8 | %19
w: |||||||||||||||||||
w: |||||||||||||||||||
w: |||||||||||||||||||
 z8 | z8 | z8 | z8 | z8 | z8 | z8 | z8 | z8 | z8 | z8 | z8 | z8 | z8 | z8 | z8 | z8 | z8 | z8 | %38
w: |||||||||||||||||||
w: |||||||||||||||||||
w: |||||||||||||||||||
 z8 | z8 | z8 | z8 | z8 | z8 | z8 | z8 | z8 | z8 | z8 | z8 | z8 | z8 | z8 | z8 | z8 | z8 | z8 | %57
w: |||||||||||||||||||
w: |||||||||||||||||||
w: |||||||||||||||||||
 z8 | z8 | z8 | z8 | z8 | z8 | z8 | z8 | z8 | z8 | z8 | z8 | z8 | z8 | z8 | z8 | z8 | z8 | z8 | %76
w: |||||||||||||||||||
w: |||||||||||||||||||
w: |||||||||||||||||||
 z6 ||"^A.""^dolce"!p! BB |!<(!!<(! G3 G G2!<)!!<)! F2 | E2 E2!>(! D2 E2 | D3!>)!!p! D D4 | %81
w: |Tu ad|li- be- ran- dum|su- sce- ptu- rus|ho- mi- nem|
w: |||||
w: |||||
 z2!<(!!<(! D2 G2 G2!<)!!<)! |!>(! !^!F4!>)! F4 |"^A." z2!<(!!<(! G2 G2!<)! G2!<)! | %84
w: non hor- ru-|i- sti,|non hor- ru-|
w: |||
w: |||
 !^!G4!>)!!>(! A4 |!f! A3 G F4 | (G2"^dim.""^-" E4)!p! D2 | E2!f! G3 F E2- | E2 D2 G2 G=A | %89
w: i- sti|Vir- gi- nis|u- * te-|rum. Tu de- vi-|* cto mor- tis a-|
w: |||||
w: |||||
"^T.B." E>D D2 z DDD | (D2 CB,) =A,2 D2 | D3 B, B,4 | C4 B,2!>(! B,2!>)! | B,6"^-" =A,2 | z8 | z8 | %96
w: |||||||
w: |||||||
w: |* * * * cre-|den- ti- bus|re- gna coe-|lo- rum.|||
 z8 | z8 | z8 | z8 | z8 | z8 | z8 | z8 | z8 | z8 | z8 ||"^A.""^dolcissimo"!p! G4 G2!<(! G2 | %108
w: |||||||||||Te er- go|
w: ||||||||||||
w: ||||||||||||
 =E3 E!<)! E4 |!mf! G3 G G4 |!>(! G4!>)! G4 |!<(! (_A6!<)!"^-""^-" B2- | %112
w: quae- su- mus|fa- mu- lis|tu- is|sub- *|
w: ||||
w: ||||
"^-"!>(! BA"^-" A3!>)!"^-" G) G2 |"^A.""^-" A2!mf! E2 A2 B2 | c2 B2 (A2 GF |"^-" EC) _D2 E4 | %116
w: * * * * ve-|ni, quos pre- ti-|o- so san- * *|* * gui- ne|
w: ||||
w: ||||
 z2 !^!E4!<(! F2!<)! | (F6"^-""^-"!>(! AG |"^-" F4)!>)!!pp! (E4 | A6) !fermata!z2 || %120
w: re- de-|mi- * *|* sti.|_|
w: ||||
w: ||||
"^T.B."!mf! E4 C2"^cresc.""^cresc." C2 | B,8 | E4 C2 C2 |!<(! B,2"^-" C2!<)!!>(! C2"^-" =B,2!>)! | %124
w: ||||
w: ||||
w: Ae- ter- na|fac,|ae- ter- na|fac cum san- ctis|
 C4!f! C2 C2 | (CD"^-""^-"CB, A,2) G,C | =B,B, (!^!C4"^-" B,2) | z8 | z8 | z8 | z8 | z8 | z8 | z8 | %134
w: ||||||||||
w: ||||||||||
w: tu- is in|glo- * * * * ri- a|nu- me- ra- *||||||||
 z8 | z8 | z8 | z8 | z8 | z8 | z8 | z8 | z8 | z8 | z8 | z8 | z8 | z8 | z8 | z8 | z8 | z8 | z8 | %153
w: |||||||||||||||||||
w: |||||||||||||||||||
w: |||||||||||||||||||
 z4 ||"^A.""^dolce"!p!!<(! G4 | G4 G4!<)! | =E3 E E4 |!<(! G2 G2!<)! G4 |!>(! G4!>)! _A4 | %159
w: |Di-|gna- re,|Do- mi- ne,|di- e i-|sto si-|
w: ||||||
w: ||||||
 A2!<(! A2 A2!<)! G2 | A2 E2 E2!>(! (E2- | E2"^-" DC!>)!"^-" D4) | E4!p! E4- | %163
w: ne pec- ca- to|nos cu- sto- di-||re: Mi-|
w: ||||
w: ||||
"^A.""^-"!<(! E2 E2!<)! !^!E2 E2 |!>(! G4!>)! E4 | (!^!E3"^-"!>(! D C2)!>)! C2 | B,8 | E3 E E2 G2 | %168
w: * se- re- re|no- stri,|Do- * * mi-|ne,|mi- se- re- re|
w: |||||
w: |||||
 (F6"^-""^-" E2 |"^-""^-" D4) =E2 G2 |"^A.""^-" G2 G2 G2 G2 | =E3 E E4 | G4 G4 | G3 G G4 | %174
w: no- *|* stri. Fi-|at mi- se- ri-|cor- di- a|tu- a,|Do- mi- ne,|
w: ||||||
w: ||||||
"^-""^-" _A8 | G4 F4 |"^A." z8 | z2 E2 F2 E2 | F2 B2 =A2 G2 | ^F2 (G4 F2) | z4 z4 | z8 | z8 | z8 | %184
w: su-|per nos||quem- ad- mo-|dum spe- ra- vi-|mus in _|||||
w: ||||||||||
w: ||||||||||
 z8 | z8 | z8 | z8 | z8 | z8 | z8 | z8 | z8 | z8 || z8 | z8 | z8 | z8 | z8 | z8 | z8 | z8 | z8 | %203
w: |||||||||||||||||||
w: |||||||||||||||||||
w: |||||||||||||||||||
 z8 | z8 | z8 |] %206
w: |||
w: |||
w: |||
V:5
 x8 | x8 | x8 | x8 | x8 | x8 | x8 | x8 | x8 | x8 | x8 | x8 | x8 | x8 | x8 | x8 | x8 | x8 | x8 | %19
w: |||||||||||||||||||
w: |||||||||||||||||||
 x8 | x8 | x8 | x8 | x8 | x8 | x8 | x8 | x8 | x8 | x8 | x8 | x8 | x8 | x8 | x8 | x8 | x8 | x8 | %38
w: |||||||||||||||||||
w: |||||||||||||||||||
 x8 | x8 | x8 | x8 | x8 | x8 | x8 | x8 | x8 | x8 | x8 | x8 | x8 | x8 | x8 | x8 | x8 | x8 | x8 | %57
w: |||||||||||||||||||
w: |||||||||||||||||||
 x8 | x8 | x8 | x8 | x8 | x8 | x8 | x8 | x8 | x8 | x8 | x8 | x8 | x8 | x8 | x8 | x8 | x8 | x8 | %76
w: |||||||||||||||||||
w: |||||||||||||||||||
 x6 || x2 | x8 | x8 | x8 | x8 | x8 | x8 | x8 | x8 | x8 | x8 | x8 | G,>G, G,2 B,2 B,B, | %90
w: ||||||||||||||
w: |||||||||||||* * * a- pe- ru-|
 (E,3 C,) D,2 D,2 | G,3 G, G,4 | (F,2 _E,2) D,2 E,2 | F,8 | x8 | x8 | x8 | x8 | x8 | x8 | x8 | x8 | %102
w: ||||||||||||
w: i- * sti cre-|den- ti- bus|re- * gna coe-|lo-|||||||||
 x8 | x8 | x8 | x8 | x8 || x8 | x8 | x8 | x8 | x8 | x8 | x8 | x8 | x8 | x8 | x8 | x8 | x8 || %120
w: ||||||||||||||||||
w: ||||||||||||||||||
 C4 A,2 A,2 | G,4 E,4 | C,4 A,,4 | (E,3 F, G,4) | C,6 C,2 | (A,B,A,G, F,2) C,C, | G,2 A,2 G,4 | %127
w: |||||||
w: Ae- ter- na|fac cum|san- ctis|tu- * *|is in|glo- * * * * ri- a|nu- me- ra-|
 x8 | x8 | x8 | x8 | x8 | x8 | x8 | x8 | x8 | x8 | x8 | x8 | x8 | x8 | x8 | x8 | x8 | x8 | x8 | %146
w: |||||||||||||||||||
w: |||||||||||||||||||
 x8 | x8 | x8 | x8 | x8 | x8 | x8 | x4 || x4 | x8 | x8 | x8 | x8 | x8 | x8 | x8 | x8 | x8 | x8 | %165
w: |||||||||||||||||||
w: |||||||||||||||||||
 x8 | x8 | x8 | x8 | x8 | x8 | x8 | x8 | x8 | x8 | x8 | x8 | x8 | x8 | x8 | x8 | x8 | x8 | x8 | %184
w: |||||||||||||||||||
w: |||||||||||||||||||
 x8 | x8 | x8 | x8 | x8 | x8 | x8 | x8 | x8 | x8 || x8 | x8 | x8 | x8 | x8 | x8 | x8 | x8 | x8 | %203
w: |||||||||||||||||||
w: |||||||||||||||||||
 x8 | x8 | x8 |] %206
w: |||
w: |||
V:6
"^TenorBassus"!f! C4 (EDC=B, |"^-" C3) D E4 | E3 E (E2 D2) | E8 | (C3 D"^-" E2) E,2 | %5
w: |||||
w: |||||
w: Te Do- * * *|* mi- num|con- fi- te- *|mur,|Pa- * * trem|
"^T.B." (A,B,CD EDCB, | A,2) F,2 C2 C2 | B,B,!ff! !^!B,2 E,2 !^!B,2 | G,4 E,2 E2 | E2 D2 E4 | %10
w: |||||
w: ||* * * Ti- *|bi * *||
w: |||||
 !^!B,2 B,2 !^!B,4 |"^T.B." B,4 z2 E2 | D3 D D2 D2 | E2 D2 C4 | B,2 B,B, D3 C | B,2 B,2 (DCDE | %16
w: ||||* Ti- bi Che- ru-|bim et Se- * * *|
w: ||||||
w: ||||||
"^-" F2) F,2 B,2 E2- |"^T.B.""^-" EE !^!E>E B,2 !^!D2- | D2 G,B, D4 | G,4 z4 | %20
w: * ra- phim in-|* ces- sa- bi- li vo-|* ce pro- cla-|mant:|
w: ||||
w: ||||
!f!"^-""^-""^-"!<(! D8-!<)! |!ff!"^-""^-""^-"!>(! D8!>)! |!f! B,4 z4 | %23
w: San-||ctus,|
w: |||
w: |||
"^T.B."!f!"^-""^-"!<(! E8-!<)! |!ff!"^-""^-""^-"!>(! E8!>)! |!f! C4 z4 | %26
w: San-||ctus,|
w: |||
w: |||
!f!"^-""^-""^-"!ff!!<(! [F,F]8-!<)! |"^-""^-"!>(! [F,F]8!>)! |!f! B,2!ff! !^!B,3 B, B,2 | D4 B,4 | %30
w: San-||ctus Do- mi- nus|De- us|
w: ||||
w: ||||
 B,6"^dim." B,2 | C6 !fermata!z2 |"^T.B."!ff! !^!_D4 C2 B,2 | _A,4 F,2 _D2 | (C2 _D2) E4 | %35
w: Sa- ba-|oth.||||
w: |||||
w: |||||
 _D3 D D2 D2 | C3 C B,4 |"^-""^-" [F,C]8 | B,4 z2 =D2 |"^T.B." D2 D2 !^!F2 D2- | D2 D2 D2 B,2 | %41
w: ||||||
w: ||tu-|ae. Te|glo- ri- o- sus|_ A- po- sto-|
w: ||||||
 !^!D2 B,2 (E3"^-" D |"^-" C4) B,4 | z4 B,2 B,B, | !^!D2!<(! B,B, E2 D!<)!C | %45
w: ||||
w: lo- rum cho- *|* rus,|||
w: ||Te Pro- phe-|ta- rum lau- da- bi- lis|
"^T.B." B,2!>(! G,2!>)!!f! F,4 | D4 E3 B, | B,2 (!^!E3 D) (CD) | E2 E2 !^!G3 E | C4 D4 | %50
w: nu- me- rus,||||lau- dat,|
w: |||||
w: |||||
"^T.B.""^-" z2 (!^!G3"^-" E) C2 | C2 C4"^dim." =B,2 | C6 z2 |!ff! G6 G2 | G4 G2 G2 | (G4 D4) | %56
w: lau- * dat|ex- er- ci-|tus.|Te per|or- bem ter-|ra- *|
w: ||||||
w: ||||||
 C2 !^!C4 C2 |"^T.B." F2 C2 C4- | C4 C2 B,2 | E6 E2 | E4!ff! z4 | z8 | z8 |"^T.B." E3 E D2 C2 | %64
w: rum * San-|||||||Ve- ne- ran- dum|
w: ||||||||
w: ||||||||
 B,2 E2 C4 | B,2 A,2 E3 E, | E,2 !^!A,4!f! C2 | B,2!f! !^!F,4 F,2 | G,4 F,2 F,2 | B,4 E2 E2 | %70
w: tu- um ve-|rum et u- ni-|cum Fi- li-|um, * *|||
w: ||||||
w: ||||||
"^T.B." D3 D D2 B,2- | B,2 C2 B,3 C | D4 F4- | F4 B,2!ff! F,2 | B,4 G,2 G,G, | C4 =A,2 C2 | %76
w: ||||||
w: ||||||
w: * * * Tu|_ _ _ _|||||
 D3 D B,2 ||"^T.""^dolce"!p! B,"^Org. tacet"B, | E3 E E2 B,2 | C2 C2!>(! =B,2 C2 | %80
w: ||||
w: ||||
w: ||||
 G,3!>)!!p! G, G,4 | z2 G,2 G,2 G,2 |!>(! !^!B,4!>)! F,4 |"^T.B." z2!<(! C2 C2 C2!<)! | %84
w: ||||
w: ||||
w: ||||
 !^!E4!>)!!>(! A,4 |!f! F,2 F,2 B,4 | (E3"^dim." D/C/ B,2)!p!!f! B,2 | B,2!f! B,B, (B,3"^-" =A, | %88
w: ||||
w: |||* Tu de- vi- *|
w: ||||
"^-" G,2) F,2 E,2 EE | z8 | z8 | z8 | z8 | z8 |"^T.B.""^-" D3 D D2 B,B, | %95
w: |||||||
w: * cto * * *||||||Tu ad de- xte- ram|
w: |||||||
!<(! (G,=A,B,C D2)!<)! D2 | E8 | D4 z2 D2 | D3 B, B,2 (E2- |"^-" E2"^-""^-" C2"^-""^-" B,4- | %100
w: |||||
w: |||* * * Pa-||
w: |||||
"^-""^-""^-""^-" B,4"^-" F,4) |"^T.B."!ff! E,4 z4 | z8 | z8 | z8 | z8 | z8 || %107
w: |Ju-||||||
w: |||||||
w: |||||||
"^T.""^dolcissimo"!p! G,4"^Org. tacet" G,2!<(! G,2 | C3 C!<)!!mf! C4 | G,3 G, G,4 |!>(! C4!>)! C4 | %111
w: ||||
w: ||||
w: ||||
!<(! (F3 E!<)! _D4 |!>(! E6)!>)! E2 |"^T." A,4 z4 |!mf! z2 E,2 A,2 B,2 | (C2 B,2"^-" A,2) G,2 | %116
w: |||quos pre- ti-|o- * * so|
w: |||||
w: |||||
"^dim." A,3 A,!<(! A,4 | B,3!<)! C"^-"!>(! _D4- | D4!>)!!pp! A,4- | A,6 !fermata!z2 || z8 | z8 | %122
w: san- gui- ne|re- de- mi-|* sti.|_|||
w: ||||||
w: ||||||
 z8 | z8 | z8 | z8 | z8 |"^T.B.""^-"!ff! C4 z4 | z4 z2!ff! G,2- | G,2 G,2 C3 C | D4!mf! z2 =B,2 | %131
w: |||||||||
w: |||||||||
w: ||||||tu-|* um, Do- mi-|ne, *|
 =B,3!<(! B, B,2 B,2!<)! | C2 C2 C2"^-" F2 | (F2"^dim." =ED"^-" E4) | %134
w: |||
w: |||
w: ||tu- * * *|
"^T.B.""^-""^-" F2!ff! F,2 A,2 A,2 | C4 C2 CC | C2 D2 E4 | E2 G4 F2 | ED (C4 =B,2) | %139
w: |||||
w: |||||
w: ae. * * *||||in ae- ter- *|
 C2!f!"^sempre" E2 C2 CC |"^T.B." (F3"^-" E"^-" DE"^-"DC |"^-""^-" B,4) E,4 |"^-" (B,4 C2) A,2 | %143
w: ||||
w: ||||
w: num, per sin- gu- los|di- * * * * *|* es|be- * ne-|
 B,2 C2"^stringendo""^marcatissimo"!ff! B,4 | E,4!ff! z4 | !>!B,4 !>!D4 | !>!F4 !>!F,4 | %147
w: ||||
w: ||||
w: di- ci- mus|te.|||
"^T.B." C4 E4 | A4 A,4 | z2 B,2 B,3 B, | B,2 C4 E2 | E2 D2 D4 |"^-" (C4 D2) C2 | =B,4 || %154
w: |||||||
w: |||||||
w: no- men|tu- um||||||
"^T.""^dolce"!p!!<(! G,4 |"^Org. tacet" G,4 G,4!<)! | C3 C C4 |!<(! G,2 G,2!<)! C4 | %158
w: ||||
w: ||||
w: ||||
 C4!>(! F,2 F,!>)!F, | A,2!<(! A,2!<)! E4 | A,2 E2 (A,2!>(! C2!>)! |"^-""^-""^-" B,8) | E,8 | %163
w: |||||
w: |||||
w: * si- ne pec-|ca- to nos|cu- sto- di- *||re:|
"^T.B." z8 |!p!"^-" z8 | z8 |!p! G,3!<(! G, G,2!<)! G,2 |!>(! B,4!>)! G,4 | C3 C =B,2 C2 | %169
w: ||||||
w: |||mi- se- re- re|no- stri,|mi- se- re- re|
w: ||||||
 (C2 =B,2) C2 G,2 |"^T." G,2 G,2 G,2 G,2 | C3 C C4 | G,4 G,4 | C3 C C2 (C_B, | %174
w: |||||
w: no- * stri. *||||* * * su- *|
w: |||||
 _A,G,"^-"F,E,"^-" F,G,"^-"A,B, |"^-" CD"^-""^dim." E2"^-" B,2) B,2 |"^T." E6 E2 | E3 E D2 C2 | %178
w: ||||
w: |* * * * per|nos quem-|ad- mo- dum spe-|
w: ||||
 B,3 B, C4 | D8 |"^T.B."!f! G,4 G,2 =A,2 | B,3 B, B,4 | z2 B,4 C2 | D3 D D2 B,2 | G8 | %185
w: |||||||
w: ra- vi- mus|in||||||
w: |||||||
"^T.B." D4 z4 |"^marcatissimo" z2 B,4 (CD) | E4 E,4 |"^accelerando" z2 C4 (DE) | %189
w: ||||
w: ||||
w: ||||
"^T.B.""^-" F4 F,4 | z2 D4 (EF) | G4 G,4 | z2 E4 E2 | F2 C2 F2 F2 || (F8 |"^-" !>!E4) !>!E4 | %196
w: |||||||
w: |||||||
w: |||||||
"^T.B." z4 G2 G2 | !^!G4 !^!G4 | z4 G2 G2 | G4 G4 | z4 G2 G2 | (G8- | G8 | D8) | C8- | C8 |] %206
w: ||||||||||
w: ||||||||||
w: ||||||||||
V:7
 z8 | z8 | z8 | z8 | z8 | z8 | z8 | z4 B,4 | G,4 E,2 C2 | B,3 B, E,4 | !^!E,2 E,2 !^!E,4 | %11
w: |||||||||||
w: |||||||||||
w: |||||||||||
w: |||||||||||
 E,4 x2 E,2 | B,3 B, B,2 B,2 | E,2 B,2 F,4 | B,,4 z4 | z8 | z8 | z8 | z8 | z8 | D8 | D8 | B,4 x4 | %23
w: ||||||||||||
w: ||||||||||||
w: ||||||||||||
w: ||||||||||||
 E8- | E8 | C4 x4 | x8 | x8 | B,2 !^!B,3 B, B,2 | D4 B,4 | G,4 G,4 | !fermata!F,6 x2 | %32
w: |||||||||
w: |||||||||
w: |||||||||
w: |||||||||
 !^!_D4 C2 B,2 | A,4 F,2 _D,2 | (A,2 B,2) C4 | B,3 B, B,2 B,2 | F,3 F, B,,4 | x8 | %38
w: ||||||
w: ||||||
w: ||||||
w: ||||||
 !fermata!B,,4 x2 B,2 | B,2 B,2 !^!D2 B,2- | B,2 G,2 G,2 G,2 | !^!B,2 G,2 (E,4 | F,4) B,,4 | z8 | %44
w: ||||||
w: ||||||
w: ||||||
w: ||||||
 z8 | z8 | B,4 B,3 G, | E,4 E,2 F,2 | E,4 E,4 | A,3 F, B,,4 | E,3 E, E,2 C2- | CA, F,2 G,3 G, | %52
w: ||||||||
w: ||||||||
w: ||||||||
w: ||Te Mar- ty-|rum can- di-|da- tus|lau- dat ex-|er- ci- tus, lau-|* dat ex- er- ci-|
 C,6 x2 | C6 C2 | C4 C2 C2 | G,8 | C,4 F,3 F, | F,2 F,2 (F,3 G, | A,4) A,2 G,2 | A,6 A,2 | %60
w: ||||||||
w: ||||||||
w: ||||||||
w: tus.||||||||
 E,4 E,4 | G,2 G,2 B,3 B, | C2 C2 !^!A,4 | E,8 | z8 | z8 | z8 | B,,6 B,,2 | E,4 B,,2 B,,2 | %69
w: |||||||||
w: |||||||San- ctum||
w: |||||||||
w: |||||||||
 (G,3 F,) E,2 C2 | B,3 B, B,,4 | z8 | z8 | z4 z2 F,2 | B,4 G,2 G,G, | C4 =A,2 C2 | D3 D B,2 || z2 | %78
w: |||||||||
w: |||||||||
w: |||||||||
w: |||||||||
 z8 | z8 | z8 | z8 | x8 | z8 | z8 | z8 | z8 | E,2 E,2 C,4 | B,,4 E,2 CC | x8 | x8 | x8 | x8 | x8 | %94
w: ||||||||||||||||
w: ||||||||||||||||
w: |||||||||Tu de- vi-|cto * * *||||||
w: ||||||||||||||||
 B,,8 | z8 | z8 | z4 x2 ^F,2 | G,3 G, E,4 | (C2 _A,2 E,F,G,E, | B,4) B,,4 | E,4 G,4 | B,3 B, B,4 | %103
w: |||||||||
w: |||||||||
w: rum.|||in|glo- ri- a|Pa- * * * * *|* tris,|||
w: |||||||||
 z2 !^!G,2 G,2 G,2 | C4 C2 C2 | D8 | !fermata!G,8 || z8 | z8 | z8 | z8 | z8 | z8 | x8 | z8 | z8 | %116
w: |||||||||||||
w: |||||||||||||
w: |||||||||||||
w: |||||||||||||
 z8 | z8 | z8 | z8 || x8 | x8 | x8 | x8 | x8 | x8 | x8 | C,2 !^!C,2 E,2 E,2 | G,3 G, G,4 | %129
w: |||||||||||||
w: |||||||||||ri. Sal- vum fac|po- pu- lum|
w: |||||||||||||
w: |||||||||||||
 G,2 G,2 C3 C | G,4 x2 G,2 | G,3 G, G,2 G,2 | C2 C2 (F,G,A,B, | C2) C2 !^!C4 | F,2 F,2 A,2 A,2 | %135
w: ||||||
w: tu- um, Do- mi-|ne, et|be- ne- dic hae-|re- di- ta- * * *|* ti tu-|ae. Et re- ge|
w: ||||||
w: ||||||
 C4 C2 CC | C2 D2 E4 | E2 E,4 F,2 | G,2 A,2 !^!G,4 | C,4 z4 | z8 | z8 | z8 | z8 | !>!E,4 !>!G,4 | %145
w: ||||||||||
w: |||in ae- ter-|num,|||||Et lau-|
w: ||||||||||
w: ||||||||||
 !>!B,4 !>!B,,4 | F,4 A,4 | C4 C,2 C2 | A,4 C4 | E2 E,2 E,3 E, | E,2 C,4 C2 | B,3 B, B,4 | %152
w: |||||||
w: da- mus|no- men|tu- um in|sae- cu-|lum, in sae- cu-|lum, et in|sae- cu- lum|
w: |||||||
w: |||||||
 F,6 F,2 | G,4 || z4 | z8 | z8 | z8 | z8 | z8 | z8 | z8 | z8 | x8 | z4!<(! (E,2 F,G,!<)! | %165
w: |||||||||||||
w: sae- cu-|li.||||||||||||
w: |||||||||||||
w: |||||||||||||
 A,3)!>(! A,!>)! A,4 | E,3 E, E,2 E,2 | G,4 E,4 | F,2 F,2 G,2 C,2 | G,4 C,4 | z8 | z8 | z8 | z8 | %174
w: |||||||||
w: |||||||||
w: |||||||||
w: |||||||||
 z8 | z8 | z8 | z8 | z8 | z8 | z2 G,4 =A,2 | B,3 B, B,4 | x2 B,4 C2 | D3 D D2 B,2 | E8 | B,4 x4 | %186
w: ||||||||||||
w: ||||||||||||
w: ||||||||||||
w: ||||||||||||
 x2 G,4 (=A,B,) | C4 C,4 | x2 =A,4 (B,C) | D4 D,4 | x2 B,4 (CD) | E4 E,4 | x2 C4 C2 | %193
w: |||||||
w: non con- *|fun- dar,|non con- *|fun- dar,|non con- *|fun- dar,|non con-|
w: |||||||
w: |||||||
 F,2 F,2 F,2 F,2 || (B,8 | !>!E,4) !>!E,4 | x4 C2 C2 | !^!G,4 !^!G,4 | x4 G,2 G,2 | C4 C4 | %200
w: |||||||
w: fun- dar in ae-|ter-|* num,|||||
w: |||||||
w: |||||||
 x4 C2 C2 | (((G,8 | G,8-))) | !fermata!G,8 | C,8- | !fermata!C,8 |] %206
w: ||||||
w: ||||||
w: ||||||
w: ||||||
V:8
!f! C8- | C8 | G4 F4 |!mf! G4 [Be-]4 | e8 |"^Org." cd e6 | c4 cd (e2- | e2 d2)!ff! e2 B2 | G4 E4- | %9
 E2 D2 G4 | z8 |"^Org." G2 G2 G4 | z8 | z8 |!mf!"^Meno mosso" d4 f3 e | d4 f4- | %16
 [cf]2 [F-=Ac]2 [FBd]2 [GBe]2- |"^Org." [GB-e]4 [FBd]2 [^F=Ad]2- | d8 | B4 B,2 C2 | %20
!f! [GB]2 [=Ac]2 [Bd]2"^accelerando   sempre" [Ac]2 | B4 =A4 |!ff! d2 c2 B2 =A2 | %23
"^Org."!f! G2 F2!ff! E4 | g2 f2 e2 d2 |!ff! [=Ac]4 [Bd]2 [ce]2 | f2 e2 d4- | d2 cB c4 | [FBd]4 z4 | %29
 [DGBd]4 z4 | z8 | !fermata!z4 !fermata!z4 |"^Pesante e largo""^Wuchtig und breit q=96" [A_d]8 | %33
 f2 e2 [A_d]4 | [ce]2 [B_d]2 [EAc]4 | [_DFB]4 z4 | z4 [_DF-B-]4 | B2 =AG A4 | %38
 !fermata![=DFB]4 z2 z2 |"^Org." z8 | z8 | z8 | F6 d2 | [Bd]8- | [Bd]4 B3 c |"^Org." d3 e [cf]4 | %46
 [FBd]2 [B,DF]2 [B,EG]4 | [B,EG]6 [A,CF]2 | [B,EG]8 | z2 AG F4 | G6 E2- | E2 A2 G4- | G4 z4 | %53
!ff! [c=e]8- | [ce]8 | d4 g4 | [Gc=e]4 [_Acf]4 |"^Org." [FAc]4 [FAcf]4 | [c_e]6 e=d | c6 cd | %60
 [Be]4 E4 | G4 B4 | c4 A4 |"^Org."!mf! e4"^Meno mosso q=96" d2 c2 | B4 e4 | d2 c2 [GB]4- | %66
 [GB]2 [Ac]4 [EA]2 | [DFB]4 D4 | E4 D4 | E3 F G2 =A2 | B8 | [Bd]2 e2 d3 c | B4 c4- | c4!ff! B2 F2 | %74
 B4 G4 | c4 =A2 c2 | d4 B2 || z2 | z8 | z8 | z8 | z8 | z8 | z8 | z8 | z8 | z8 | z8 | z8 | z8 | z8 | %91
 z8 | z8 | z8 |"^Org."!mf! [DFB]8 | d8- | d2 cB [cg]4 | [d^f]4 z4 | z8 | z8 | z4 D4 | E6 G2 | %102
 [FB]8 | [CEG]6 z2 | c8- | c4 =B2 =A2 | !fermata![G=B]8 || z8 | z8 | z8 | z8 | z8 | z8 | z8 | z8 | %115
 z8 | z8 | z8 | z8 | z8 || z8 | z8 | z8 | z8 | z8 | z8 | z8 | C4 E4 | G8- | G4 c4 |"^dim." =B8 | %131
 z8 | z8 | z8 |!ff! F4 A4 | c6 z2 | c2 d2 e4 | B4 z4 | z4 G4 | [Gg]4 [ce]4 | z8 |!pp! [FB]4 B2 e2 | %142
 [Bd]4 [Ec]4 | [FB]2 A2 [FB]4 |"^string."!ff! G4 B4 | z4 B4- | B2 AG A4 | G8 | cBAG AGEF | G4 z4 | %150
 z2 [EG]2 [EG]3 [EG] | B6 z2 | z8 | z4 || z4 | z8 | z8 | z8 | z8 | z8 | z8 | z8 | z8 | z8 | z8 | %165
 z8 | z8 | z8 | z8 | z8 | z8 | z8 | z8 | z8 | z8 | z8 | z8 | z8 | z8 | z8 | G6 =A2 | %181
 [B,DB]6"^accelerando molto poco a poco con tutta la forza sempre" z2 | B6 c2 | [FBd]6 z2 | [eg]8 | %185
 [FBdf]4 z2 [Bd]2- |"^marcatissimo" [Bd]2 [GB]4 [EG]2- | [EG]2 [CE]4 [ce]2- | %188
 [ce]2 [=Ac]4 [CF-A-]2 | [DFA]2 [DF]4 [=Ad-f-]2 | [Bdf]2 [Bd]4 [DG-B-]2 | [EGB]2 [B,EG]4 [Be-g-]2 | %192
 [ceg]2 [ce]4 [E=A-c-]2 | [FAc]2 [CF=A]4 z2 || z4 [FBdf]2 [FBdf]2 | [GBeg]4 [GBeg]4 | %196
 z4 [Gce]2 [Gce]2 | [G=Bdg]4"^In starken Schlägen (Con colpo assai forte)" [GBdg]4 | %198
 z4 [G=Bd]2 [GBd]2 | [Gce]4 [Gce]4 | z4 [Gce]2 [Gce]2 | [cd-]8 | d8 | !fermata![=Bd]8 | [c=e]8- | %205
"^dim." !fermata![ce]8 |] %206
V:9
"^P" [C,E,G,]8- | [C,E,G,]8 | B,8- | B,4 E4 | C3 D E2 E,2 | A,B,CD EDCB, | A,2 F,2 C4 | %7
!ff!"^Meno mosso" B,8 | B,4 G,4 | B,8 | z8 | B,2 B,2 B,4 | z8 | z8 | B,4 D3 C | B,4 DCDE | %16
 F2 F,2 B,2 E2- | E4 B,2 D2- | D2 G,B, D4- | D4 G,2 =A,2 | [B,D]2 [=A,C]2 B,2 C2 | D4 D,4 | %22
 [G,B,]2 [=A,C]2 [B,D]4 | C2 D2 E4 | E2 F2 G4 | C4 x4 | [B,D]2 [CE]2 [DF-]4 | F8 | [B,D]4 z4 | %29
 [G,B,D]4 z4 | z8 | !fermata!z4 !fermata!z4 |"^Org."!ff! [_D,F,A,]8- | [D,F,A,]8 | %34
 [A,C]2 [B,_D]2 [CE]4 | F,4 z4 | z4 B,4 | [F,C]8 | [F,B,]4 z2 z2 | z8 | z8 | z4!p! B,4- | %42
"^Man." B,2 =A,2 B,4 |"^Meno mosso" z4 B,4 | D2 B,2 E2 DC | x4"^P" C4 | D4 E,4 |"^Man." E,6 F,2 | %48
 E,8 | z2"^P" C2 F,2 B,A, |"^Org." G,4 z2 C2- | C6"^dim." =B,2 | C6 z2 | [G,C]8- | [G,C]8 | %55
 [G,,G,D]8 | [G,C-]4 [F,C]4- |"^Meno mosso q=96" [F,,F,C]8 | C6 E2 | [CE]3 [B,D] [A,C]4 | %60
 [G,B,-]8 | B,2 E,2 F,4 | A,8 | B,8- | B,4"^Man." C4 | B,2 A,2 E4 | E,2 A,4 C2 |"^P" [B,,F,B,]8 | %68
 B,8 | B,6 E2 |"^Org." D8 |"^Man." B,2 C2 B,3 C | D4"^P" F4- | F4 B,4- | B,8 | G,4 F,2 z2 | %76
 =A,4 G,2 || z2 | z8 | z8 | z8 | z8 | z8 | z8 | z8 | z8 | z8 | z8 | z8 | z8 | z8 | z8 | z8 | z8 | %94
"^Man." B,8 | G,=A,B,C D4 | E8 | D4 z4 | z8 | z8 |"^P" z4!ff! B,2 _A,2 |"^Org.""^P"!ff! G,6 G,2 | %102
 B,8 | G,6 z2 | A,8 | [D,G,]8- | [D,G,]8 || z8 | z8 | z8 | z8 | z8 | z8 | z8 | z8 | z8 | z8 | z8 | %118
 z8 | z8 || z8 | z8 | z8 | z8 | z8 | z8 | z8 |!ff! [E,G,]8 | =B,4 C4 | G,4 C4 | D8 | z8 | z8 | z8 | %134
 A,4 F,4 | G,6 z2 | A,4 G,4 | B,4 z4 | z4"^Man."!mf! G,4 | C8 | z8 | B,4 E,4 | B,4 C2 A,2 | %143
 B,2 C2"^P" B,4 | B,4 E4- | E2 DC DE D2 | C8- | C4 CD E2- | E2 C2 E2 C2 | B,4 z4 | z2 C2 C3 E | %151
 E2 DC D2 z2 | z8 | z4 || z4 | z8 | z8 | z8 | z8 | z8 | z8 | z8 | z8 | z8 | z8 | z8 | z8 | z8 | %168
 z8 | z8 | z8 | z8 | z8 | z8 | z8 | z8 | z8 | z8 | z8 | z8 |!ff! G,8- | [G,,G,]6 z2 | B,8- | %183
 B,6 z2 | [B,E]8 | B,4 [F,D]4 | [G,B,]4 [E,G,]4 | [C,E,]4 [G,CE]4 |"^accelerando" [=A,C]4 [F,A,]4 | %189
 [D,F,]4 [DF]4 | [B,D]4 [G,B,]4 | [E,G,]4 [EG]4 | [CE]4 [=A,C]4 | [=A,C]4 [F,A,]2 z2 || %194
 z4 [F,B,D]2 [F,B,D]2 | [E,G,B,E]4 [E,G,B,E]4 | z4 [G,CE]2 [G,CE]2 | [G,=B,D]4 [G,B,D]4 | %198
 z4 [G,=B,D]2 [G,B,D]2 | [G,CE]4 [G,CE]4 | z4 [G,CE]2 [G,CE]2 | C8 | =B,4 =A,4 | [G,=B,]8 | %204
 [C,=E,G,C]8- | !fermata![C,E,G,C]8 |] %206
V:10
 x8 | x8 | E6 D2 | E4 G4- | G2 A4 G2 | A2- A2 GF E2 | [EA-]2 [FA]2 E4 | [FB-]4 [GB]4 | E4 B,2 C2 | %9
 F4 E4 | x8 | E2 E2 E4 | x8 | x8 | [FB]8- | [FB]6 [FB-d]2 | [FB]2 x2 x4 | x8 | %18
 [FA]2 [G-B]2 G2 ^F2 | G4 x4 | x8 | G6 ^F2 | G4 D4 | E2 C6 | e2 d2 c2 B2 | F2 G2 F2 E2 | %26
 d2 c2 B4- | B2 =AG A4 | x8 | x8 | x8 | x8 | [_D-F]8 | [D-A-_d]4 [DF]4 | E4 x4 | x8 | x8 | [CF]8 | %38
 x8 | x8 | x8 | x8 | C4 D2 B2 | z4 F4- | F4 G2 [FB][E=A] | F2 B4 =A2 | x8 | x8 | x8 | x2 FE D4 | %50
 B,4 E4 | C2 F>E D4 | C6 z2 | [=EG]8- | [EG]8 | [G-c]4 [G=B]4 | x8 | x8 | A6 B2 | E4 E3 F | G4 x4 | %61
 E6 D2 | E8 | G8- | G8- | E4- E4- | x8 | x8 | x8 | x4 E4 | F8 | F2 [E=A]2 [FB]4 | F4 z4 | x4 D4 | %74
 D4 B,2 E2 | =E4 F2 G2- | G2 ^F2 G2 || x2 | x8 | x8 | x8 | x8 | x8 | x8 | x8 | x8 | x8 | x8 | x8 | %89
 x8 | x8 | x8 | x8 | x8 | x8 | G6 ^F2 | G4- G4 | =A4 x4 | x8 | x8 | x4 D2 C2 | B,6 E2 | E4 D4 | %103
 x8 | [C^F]8 | [DG]8 | D8 || x8 | x8 | x8 | x8 | x8 | x8 | x8 | x8 | x8 | x8 | x8 | x8 | x8 || x8 | %121
 x8 | x8 | x8 | x8 | x8 | x8 | C4 C4 | D4 E4 | D4 ^F4 | G8 | x8 | x8 | x8 | [CF]8 | _E6 x2 | %136
 [FA]4 [G-B]4 | G4 x4 | x4 D4 | E4 G4 | x8 | x4 [EG]4 | F2 GF G2 AG | D2 E2- E2 D2 | x8 | %145
 F4 FG F2 | F8- | F2 ED EF G2 | A2 E4 z2 | E4 x4 | x8 | F6 x2 | x8 | x4 || x4 | x8 | x8 | x8 | x8 | %159
 x8 | x8 | x8 | x8 | x8 | x8 | x8 | x8 | x8 | x8 | x8 | x8 | x8 | x8 | x8 | x8 | x8 | x8 | x8 | %178
 x8 | x8 | [B,D]4 [CE]4 | x8 | [DG]4 [EG]4 | D6 x2 | [GB]8 | x8 | x8 | x8 | z2 E2 F2 x2 | x8 | x8 | %191
 x8 | x8 | x8 || x8 | x8 | x8 | x8 | x8 | x8 | x8 | [DG]8- | [DG]8 | [DG]8 | [=EG]8- | [EG]8 |] %206
V:11
 x8 | x8 | E,2 G,2 B,2 B,,2 | E,,4 z4 | x8 | z8 | z8 | z2 B,,2 E,4 | E,6 C,2 | B,,4 E,4 | x8 | %11
 E,2 E,2 E,4 | x8 | x8 | z8 | z8 | z8 | z8 | z8 | z8 | G,,6 =A,,2 | B,,2 C,2 D,4 | G,,4 G,2 F,2 | %23
 E,2 D,2 C,4- | C,2 D,2 E,4 | F,2 E,2 D,2 C,2 | B,,2 C,2 D,2 E,2 | F,8 | B,,4 x4 | G,,4 x4 | x8 | %31
 x8 | _D,,8- | D,,8 | [A,,E,]8 | B,,4 x4 | x4 B,4 | x8 | !fermata!B,,4 x4 | x8 | x8 | x8 | %42
 F,4 B,,4 | x8 | x8 | B,2 G,2 F,4 | B,,4 x4 | x8 | x8 | x2 F,2 B,,4 | E,4 x2 A,,2- | %51
 A,,2 F,,2 G,,4 | C,6 x2 | C,8- | C,8 | x8 | C,4 F,,4- | x8 | A,,6 G,,2 | A,,8 | E,,8- | %61
 E,,2 C,2 B,,4 | A,,4 C,4 | E,8- | E,4 x4 | x8 | x8 | x8 | E,4 B,,4 | G,3 F, E,2 C,2 | B,,8 | x8 | %72
 x8 | z2 F,,2 B,,4- | B,,2 B,,2 E,4 | C,4 F,2 E,2 | D,4 G,,2 || x2 | x8 | x8 | x8 | x8 | x8 | x8 | %84
 x8 | x8 | x8 | x8 | x8 | x8 | x8 | x8 | x8 | x8 | x8 | x8 | x8 | x8 | x8 | x8 | x4 B,,4 | %101
 E,6 C,2 | B,,8 | C,6 x2 | A,,8 | G,,8- | !fermata!G,,8 || x8 | x8 | x8 | x8 | x8 | x8 | x8 | x8 | %115
 x8 | x8 | x8 | x8 | x8 || x8 | x8 | x8 | x8 | x8 | x8 | x8 | C,8 | G,,4 C,4 | _B,,4 _A,,4 | G,,8 | %131
 x8 | x8 | x8 | F,8 | C,6 x2 | F,4 E,4- | E,4 x4 | x8 | x8 | x8 | x8 | x8 | x8 | E,,4 G,,4 | %145
 B,,4 B,,,4 | F,,4 A,,4 | C,8 | A,,4 C,4 | E,4 x4 | x2 C,2 C,3 C, | B,,6 x2 | x8 | x4 || x4 | x8 | %156
 x8 | x8 | x8 | x8 | x8 | x8 | x8 | x8 | x8 | x8 | x8 | x8 | x8 | x8 | x8 | x8 | x8 | x8 | x8 | %175
 x8 | x8 | x8 | x8 | x8 | G,,4 C,4 | x8 | G,4 E,4 | B,,6 x2 | E,8 | B,,4 B,,4 | G,,4 E,,4 | %187
 C,,4 C,4 | =A,,4 F,,4 | D,,4 D,4 | B,,4 G,,4 | E,,4 E,4 | C,4 =A,,4 | =A,,4 F,,2 x2 || %194
 x4 B,,2 B,,2 | E,,4 E,,4 | x4 C,2 C,2 | G,,4 G,,4 | x4 G,,2 G,,2 | C,4 C,4 | x4 C,2 C,2 | %201
 [G,,D,G,]8- | [G,,D,G,]8 | !fermata![G,,D,]8 | C,,8 | !fermata!C,,8 |] %206
V:12
 x8 | x8 | x8 | x8 | c4 B4 | x2 c2 B2 z2 | x4 G3 A | x8 | x8 | x8 | x8 | x8 | x8 | x8 | x8 | x8 | %16
 x8 | x8 | x8 | x8 | x8 | x8 | x8 | x8 | x8 | x8 | x8 | x8 | x8 | x8 | x8 | x8 | x8 | x8 | x8 | %35
 x8 | x8 | x8 | x8 | x8 | x8 | x8 | x8 | x8 | x8 | B4 x4 | x8 | x8 | x8 | x8 | x8 | x8 | x8 | x8 | %54
 x8 | x8 | x8 | x8 | x8 | A4 A4 | x8 | x8 | x8 | x8 | x8 | x8 | E8 | x8 | x8 | x8 | x8 | x8 | x8 | %73
 x8 | x8 | x8 | x6 || x2 | x8 | x8 | x8 | x8 | x8 | x8 | x8 | x8 | x8 | x8 | x8 | x8 | x8 | x8 | %92
 x8 | x8 | x8 | x8 | x8 | x8 | x8 | x8 | x8 | x8 | x8 | x8 | x8 | x8 | x8 || x8 | x8 | x8 | x8 | %111
 x8 | x8 | x8 | x8 | x8 | x8 | x8 | x8 | x8 || x8 | x8 | x8 | x8 | x8 | x8 | x8 | x8 | x8 | x8 | %130
 x8 | x8 | x8 | x8 | x8 | x8 | x8 | x8 | x8 | x8 | x8 | x8 | x8 | x8 | x8 | x8 | x8 | x8 | x8 | %149
 x8 | x8 | x8 | x8 | x4 || x4 | x8 | x8 | x8 | x8 | x8 | x8 | x8 | x8 | x8 | x8 | x8 | x8 | x8 | %168
 x8 | x8 | x8 | x8 | x8 | x8 | x8 | x8 | x8 | x8 | x8 | x8 | x8 | x8 | x8 | x8 | x8 | x8 | x8 | %187
 x8 | x8 | x8 | x8 | x8 | x8 | x8 || x8 | x8 | x8 | x8 | x8 | x8 | x8 | x8 | x8 | x8 | x8 | x8 |] %206
V:13
 x8 | x8 | x8 | x8 | x8 | x8 | x8 | x8 | x8 | x8 | x8 | x8 | x8 | x8 | x8 | x8 | x8 | x8 | x4 =A4 | %19
 x8 | x8 | x8 | x8 | x8 | x8 | x8 | x8 | x8 | x8 | x8 | x8 | x8 | x8 | x8 | x8 | x8 | x8 | x8 | %38
 x8 | x8 | x8 | x8 | x8 | x8 | x8 | x8 | x8 | x8 | x8 | x8 | x8 | x8 | x8 | x8 | x8 | x8 | x8 | %57
 x8 | x8 | x8 | x8 | x8 | x8 | x8 | x4 E4- | G2 A2 x4 | x8 | x8 | x8 | x8 | x8 | x8 | x8 | x8 | %74
 x8 | x8 | x6 || x2 | x8 | x8 | x8 | x8 | x8 | x8 | x8 | x8 | x8 | x8 | x8 | x8 | x8 | x8 | x8 | %93
 x8 | x8 | B4 =A4 | x8 | x8 | x8 | x8 | x8 | x8 | x8 | x8 | x8 | x8 | x8 || x8 | x8 | x8 | x8 | %111
 x8 | x8 | x8 | x8 | x8 | x8 | x8 | x8 | x8 || x8 | x8 | x8 | x8 | x8 | x8 | x8 | x8 | x8 | x8 | %130
 x8 | x8 | x8 | x8 | x8 | x8 | x8 | x8 | x8 | x8 | x8 | x8 | x8 | x8 | x8 | x8 | x8 | x8 | x8 | %149
 x8 | x8 | x8 | x8 | x4 || x4 | x8 | x8 | x8 | x8 | x8 | x8 | x8 | x8 | x8 | x8 | x8 | x8 | x8 | %168
 x8 | x8 | x8 | x8 | x8 | x8 | x8 | x8 | x8 | x8 | x8 | x8 | x8 | x8 | x8 | x8 | x8 | x8 | x8 | %187
 x8 | x8 | x8 | x8 | x8 | x8 | x8 || x8 | x8 | x8 | x8 | x8 | x8 | x8 | x8 | =B4 =A4 | x8 | x8 | %205
 x8 |] %206
V:14
 x8 | x8 | x8 | x8 | x8 | x8 | x8 | x8 | x8 | x8 | x8 | x8 | x8 | x8 | x8 | x8 | x8 | x8 | x8 | %19
 x8 | x4 G,4- | G,4 x4 | x8 | G,8- | [G,C]8 | x8 | x8 | x8 | x8 | x8 | x8 | x8 | x8 | x8 | x8 | %35
 x8 | x8 | x8 | x8 | x8 | x8 | x8 | x8 | x8 | x8 | x8 | x8 | x8 | x8 | x8 | x8 | x8 | x8 | x8 | %54
 x8 | x8 | x8 | x8 | x8 | x8 | x8 | x8 | x8 | x8 | x8 | x8 | x8 | x8 | x8 | x8 | x8 | x8 | x8 | %73
 x8 | x8 | x8 | x6 || x2 | x8 | x8 | x8 | x8 | x8 | x8 | x8 | x8 | x8 | x8 | x8 | x8 | x8 | x8 | %92
 x8 | x8 | x8 | x8 | x8 | x8 | x8 | x8 | x8 | x8 | x8 | x8 | x8 | x8 | x8 || x8 | x8 | x8 | x8 | %111
 x8 | x8 | x8 | x8 | x8 | x8 | x8 | x8 | x8 || x8 | x8 | x8 | x8 | x8 | x8 | x8 | x8 | x8 | x8 | %130
 x8 | x8 | x8 | x8 | x8 | x8 | x8 | x8 | x8 | x8 | x8 | x8 | x8 | x8 | x8 | x8 | x8 | x8 | x8 | %149
 x8 | x8 | x8 | x8 | x4 || x4 | x8 | x8 | x8 | x8 | x8 | x8 | x8 | x8 | x8 | x8 | x8 | x8 | x8 | %168
 x8 | x8 | x8 | x8 | x8 | x8 | x8 | x8 | x8 | x8 | x8 | x8 | x8 | x8 | x8 | x8 | x8 | x8 | x8 | %187
 x8 | x8 | x8 | x8 | x8 | x8 | x8 || x8 | x8 | x8 | x8 | x8 | x8 | x8 | x8 | x8 | x8 | x8 | x8 |] %206
V:15
 x8 | x8 | x8 | x8 | x8 | x8 | x8 | x8 | x8 | x8 | x8 | x8 | x8 | x8 | x8 | x8 | x8 | x8 | x8 | %19
 x8 | x8 | x8 | x8 | x8 | x8 | x8 | x8 | B,2 CD C4 | x8 | x8 | x8 | x8 | x8 | x8 | x8 | x8 | x8 | %37
 x8 | x8 | x8 | x8 | x8 | x8 | x8 | x8 | x8 | x8 | x8 | x8 | x8 | x8 | x8 | x8 | x8 | x8 | x8 | %56
 x8 | x8 | z2 A,4 E,2 | x8 | x8 | x8 | x8 | x8 | x8 | x8 | x8 | x8 | G,4 F,4 | x8 | x8 | x8 | x8 | %73
 x8 | F,4 E,2 G,2 | C8 | D6 || x2 | x8 | x8 | x8 | x8 | x8 | x8 | x8 | x8 | x8 | x8 | x8 | x8 | %90
 x8 | x8 | x8 | x8 | x8 | x8 | x8 | x8 | x8 | x8 | z4 F,4 | x8 | x8 | x8 | x8 | x8 | x8 || x8 | %108
 x8 | x8 | x8 | x8 | x8 | x8 | x8 | x8 | x8 | x8 | x8 | x8 || x8 | x8 | x8 | x8 | x8 | x8 | x8 | %127
 x8 | x8 | x8 | x8 | x8 | x8 | x8 | x8 | x8 | x8 | x8 | x8 | x8 | x8 | x8 | x8 | x8 | x8 | x8 | %146
 x8 | x8 | x8 | x8 | x8 | x8 | x8 | x4 || x4 | x8 | x8 | x8 | x8 | x8 | x8 | x8 | x8 | x8 | x8 | %165
 x8 | x8 | x8 | x8 | x8 | x8 | x8 | x8 | x8 | x8 | x8 | x8 | x8 | x8 | x8 | x8 | x8 | x8 | x8 | %184
 x8 | x8 | x8 | x8 | x8 | x8 | x8 | x8 | x8 | x8 || x8 | x8 | x8 | x8 | x8 | x8 | x8 | x8 | x8 | %203
 x8 | x8 | x8 |] %206

